src/images/desktop/header/hype-logo.svg

<svg width="102" height="30" viewBox="0 0 102 30" fill="none" xmlns="http://www.w3.org/2000/svg">
<path d="M74.0267 0.803615L73.9627 0.750544C73.9627 0.750544 71.5432 1.93932 68.2922 1.97117C64.9665 2.01362 63.3251 0.633789 63.3251 0.633789L60.7243 4.15767C60.7243 4.15767 62.8028 5.41014 66.0964 5.36768C71.9269 5.31461 74.0267 0.803615 74.0267 0.803615ZM31.881 27.8484C28.9711 27.1478 28.5874 26.4367 26.1465 22.7324L14.3363 4.96434C12.6415 2.41696 15.0931 1.71643 15.7007 1.71643V0.92037H1.08719V1.6209C2.74999 1.6209 5.4254 2.76722 8.21806 6.97041L20.0495 24.7809C21.8189 27.2752 19.442 28.1349 17.8751 28.1349V28.7718H32.4566V27.9227C32.1155 27.912 31.913 27.859 31.881 27.8484Z" fill="#000F27"/>
<path d="M18.4507 10.4519L18.8984 11.1842L21.0622 8.30782C21.1688 8.14861 22.6504 6.40789 23.4924 5.38894C23.5564 5.30403 23.6417 5.24034 23.7163 5.16605C26.9566 1.8969 29.6533 1.73769 31.007 1.56786V0.90979H19.3674V1.50418C21.2114 1.41927 23.8548 2.36392 21.2967 6.38667L18.4507 10.4519ZM51.1419 25.0144V15.2707C51.1419 11.0887 47.9228 8.54133 42.668 8.54133C38.7028 8.54133 35.4945 10.1971 35.3772 10.2502L35.8036 15.1221H35.8888C35.8888 15.1221 40.4083 7.94694 43.2649 9.15695L43.137 9.09326C43.2222 9.1251 43.3075 9.16756 43.3928 9.22063C43.3501 9.1994 43.3075 9.17818 43.2542 9.15695L43.3928 9.22063C44.4907 9.81502 45.3647 11.2692 45.3647 13.8378V15.6315C44.1922 15.8969 42.0071 16.4488 38.8307 17.4359C34.3326 18.837 32.9363 20.9386 32.9363 23.677C32.9363 27.5193 35.7822 29.3662 38.7774 29.3662C42.4868 29.3662 44.5226 26.6914 45.3647 25.2267V28.7718H53.263V28.6551C53.2843 28.6763 51.1419 27.5087 51.1419 25.0144ZM45.386 24.3563C45.0556 24.8764 43.947 26.3412 42.0711 26.3412C40.2164 26.3412 38.7668 25.3435 38.7668 22.8067C38.7668 19.2297 43.3075 17.0114 45.386 16.1835V24.3563ZM71.8097 9.17817H69.6352L69.6139 9.28432L62.9733 24.2927H62.7175V12.9462C62.7282 10.4625 64.86 9.29493 64.86 9.29493V9.17817H54.8192V9.29493C54.8192 9.29493 56.951 10.4625 56.9617 12.9462V25.0038C56.951 27.4875 54.8192 28.6551 54.8192 28.6551V28.7718H61.8435L61.9181 28.5489L68.6546 13.4981H68.9424V24.9932C68.9424 27.4875 66.7999 28.6551 66.7999 28.6551V28.7718H76.8407V28.6551C76.8407 28.6551 74.7089 27.4875 74.6982 25.0038V12.9568C74.6982 10.4625 76.8407 9.29493 76.8407 9.29493V9.17817H71.8097ZM101.186 9.29493V9.17817H79.1537V9.29493C79.1537 9.29493 81.2855 10.4625 81.2962 12.9462V24.9932C81.2962 27.4875 79.1537 28.6444 79.1537 28.6444V28.7612H89.1945V28.6551C89.1945 28.6551 87.0627 27.4875 87.052 25.0038V9.953H93.2875V24.9932C93.2769 27.4875 91.1344 28.6551 91.1344 28.6551V28.7718H101.175V28.6551C101.175 28.6551 99.0434 27.4875 99.0327 24.9932V12.9568C99.0434 10.4625 101.186 9.29493 101.186 9.29493ZM10.8189 22.2654L13.7501 17.0114L13.377 16.4913L9.28399 22.2017C6.19288 26.8613 2.33432 28.1031 0.660858 28.2093C0.554268 28.2199 0.458337 28.2199 0.373065 28.2199H0V28.7718H13.6648L13.6542 28.1243C13.4197 28.0925 9.97682 28.6126 10.1367 24.7809C10.1793 23.9318 10.4671 23.0508 10.8189 22.2654Z" fill="#000F27"/>
</svg>

<svg width="102" height="30" fill="none" xmlns="http://www.w3.org/2000/svg"><path d="M74.027.804L73.963.75s-2.42 1.188-5.67 1.22c-3.327.043-4.968-1.337-4.968-1.337l-2.6 3.524s2.078 1.252 5.371 1.21c5.83-.053 7.93-4.564 7.93-4.564zM31.88 27.848c-2.91-.7-3.294-1.411-5.735-5.116L14.336 4.964c-1.694-2.547.757-3.248 1.365-3.248V.92H1.087v.7c1.663 0 4.338 1.147 7.131 5.35L20.05 24.78c1.77 2.495-.607 3.355-2.174 3.355v.637h14.582v-.85a2.408 2.408 0 01-.576-.074z" fill="#000F27"/><path d="M18.45 10.452l.448.732 2.164-2.876c.107-.16 1.588-1.9 2.43-2.92.064-.084.15-.148.224-.222 3.24-3.27 5.937-3.428 7.291-3.598V.91h-11.64v.594c1.844-.085 4.488.86 1.93 4.883l-2.846 4.065zm32.692 14.562v-9.743c0-4.182-3.22-6.73-8.474-6.73-3.965 0-7.173 1.656-7.29 1.71l.426 4.871h.085s4.52-7.175 7.376-5.965l-.128-.064c.085.032.17.075.256.128-.043-.022-.086-.043-.139-.064l.139.064c1.098.594 1.972 2.048 1.972 4.617v1.794c-1.173.265-3.358.817-6.534 1.804-4.498 1.401-5.895 3.503-5.895 6.241 0 3.842 2.846 5.69 5.841 5.69 3.71 0 5.746-2.676 6.588-4.14v3.545h7.898v-.117c.021.021-2.121-1.146-2.121-3.64zm-5.756-.658c-.33.52-1.439 1.985-3.315 1.985-1.855 0-3.304-.998-3.304-3.534 0-3.577 4.54-5.796 6.619-6.623v8.172zM71.81 9.178h-2.175l-.021.106-6.64 15.009h-.256V12.946c.01-2.483 2.142-3.651 2.142-3.651v-.117H54.82v.117s2.131 1.168 2.142 3.651v12.058c-.011 2.483-2.143 3.651-2.143 3.651v.117h7.024l.075-.223 6.737-15.05h.287v11.494c0 2.495-2.142 3.662-2.142 3.662v.117h10.04v-.117s-2.131-1.168-2.142-3.651V12.957c0-2.495 2.143-3.662 2.143-3.662v-.117H71.81zm29.376.117v-.117H79.154v.117s2.132 1.168 2.142 3.651v12.047c0 2.495-2.142 3.651-2.142 3.651v.117h10.04v-.106s-2.131-1.168-2.142-3.651V9.953h6.235v15.04c-.01 2.495-2.153 3.662-2.153 3.662v.117h10.041v-.117s-2.132-1.168-2.142-3.662V12.957c.01-2.495 2.153-3.662 2.153-3.662zm-90.367 12.97l2.931-5.254-.373-.52-4.093 5.71c-3.091 4.66-6.95 5.902-8.623 6.008-.107.01-.203.01-.288.01H0v.553h13.665l-.01-.648c-.235-.031-3.678.489-3.518-3.343.042-.85.33-1.73.682-2.516z" fill="#000F27"/></svg>
